!!!!SEGMENT: pl-cz--ii-240--003_zeidler-jozef--stabat-mater-quis-est-homo.krn
!!!cenid: 18xx:305
!!!COM: Zeidler, Józef
!!!COM-rismID: pe30003401
!!!CDT: ~1744-1806
!!!CNT: Polish
!!!OPR: Stabat Mater
!!!OTL: Quis est homo
!!!OMV: 003
!!!PDT: 1840
!!!AGN: Sacred
!!!SMS-siglum: PL-CZ
!!!SMS-shelfmark: II-240
!!!SMS-shelfwork: 001-003 M
!!!NIFC-rismSourceID: 300001451
!!!NIFC-rismChildID: 300001451
!!!NIFC-islandoraID: pl-cz:33216
!!!URL-pdf-islandora: https://repozytorium.nifc.pl/islandora/object/pl-cz%3A33216/datastream/PDF/view
!!!URL-scan:
!!!ONB-nifc: UWAGA: części: Stabat Mater, Quae merebat, Quis est homo, Quis non posset, Eja Mater, Fac me vere, Virgo virginum praeclara, Inflammatus, Quando corpus morietur, Amen
!!!AIN: 1 alto 1 bass 2 clars 2 cor 1 organ 1 soprn 1 tenor 1 viola 2 violn
!!!OMD:
!!!OMD-mod: Recitativo
!!!key: F
**kern	**fba	**dynam	**kern	**dynam	**kern	**dynam	**kern	**dynam	**kern	**text	**mod-text	**kern	**kern	**kern	**kern	**kern	**kern	**kern
*part12	*	*part12	*part11	*part11	*part10	*part10	*part9	*part9	*part8	*part8	*part8	*part7	*part6	*part5	*part4	*part3	*part2	*part1
*	*	*	*group4	*	*group4	*	*group4	*	*group3	*group3	*group3	*group3	*group3	*group3	*group2	*group2	*group1	*group1
*staff12	*	*	*staff11	*	*staff10	*	*staff9	*	*staff8	*staff8	*staff8	*staff7	*staff6	*staff5	*staff4	*staff3	*staff2	*staff1
*Iorgan	*	*	*Iviola	*	*Ivioln	*	*Ivioln	*	*Ibass	*	*	*Itenor	*Ialto	*Isoprn	*Icor	*Icor	*Iclars	*Iclars
*ICklav	*	*	*ICstr	*	*ICstr	*	*ICstr	*	*ICvox	*	*	*ICvox	*ICvox	*ICvox	*ICbras	*ICbras	*ICww	*ICww
*IGconc	*	*	*	*	*	*	*	*	*	*	*	*	*	*	*	*	*	*
*I"Organ.	*	*	*I"Viola	*	*I"Violin 2do	*	*I"Violio 1mo	*	*I"Bas.	*	*	*I"Tenor.	*I"Alt.	*I"Cant!	*I"Corno 2do in F.	*I"Corno 1mo in F.	*I"Clarinetto 2do. in B.	*I"Clarinetto 1mo in B.
*mI"Organo	*	*	*mI"Viola	*	*mI"Violino II	*	*mI"Violino I	*	*mI"Basso	*	*	*mI"Tenore	*mI"Alto	*mI"Soprano	*mI"Corno II in F	*mI"Corno I in F	*mI"Clarinetto II in Bb	*mI"Clarinetto I in Bb
*I'org	*	*	*I'vla	*	*I'vl II	*	*I'vl I	*	*I'B	*	*	*I'T	*I'A	*I'S	*I'cor II in F	*I'cor I in F	*I'cl II in Bb	*I'cl I in Bb
*clefF4	*	*	*clefC3	*	*clefG2	*	*clefG2	*	*clefF4	*	*	*clefC4	*clefC3	*clefC1	*clefG2	*clefG2	*clefG2	*clefG2
*	*	*	*	*	*	*	*	*	*	*	*	*mclefG2	*mclefG2	*mclefG2	*	*	*	*
*	*	*	*	*	*	*	*	*	*	*	*	*	*	*	*ITrd4c7	*ITrd4c7	*ITrd1c2	*ITrd1c2
*k[b-]	*	*	*k[b-]	*	*k[b-]	*	*k[b-]	*	*k[b-]	*	*	*k[b-]	*k[b-]	*k[b-]	*k[b-]	*k[b-]	*k[b-]	*k[b-]
*F:	*	*	*F:	*	*F:	*	*F:	*	*F:	*	*	*F:	*F:	*F:	*F:	*F:	*F:	*F:
*M4/4	*	*	*M4/4	*	*M4/4	*	*M4/4	*	*M4/4	*	*	*M4/4	*M4/4	*M4/4	*M4/4	*M4/4	*M4/4	*M4/4
*met(c)	*	*	*met(c)	*	*met(c)	*	*met(c)	*	*met(c)	*	*	*met(c)	*met(c)	*met(c)	*met(c)	*met(c)	*met(c)	*met(c)
*mmet(c)	*	*	*mmet(c)	*	*mmet(c)	*	*mmet(c)	*	*mmet(c)	*	*	*mmet(c)	*mmet(c)	*mmet(c)	*mmet(c)	*mmet(c)	*mmet(c)	*mmet(c)
=1	=1	=1	=1	=1	=1	=1	=1	=1	=1	=1	=1	=1	=1	=1	=1	=1	=1	=1
*xywh-#37:7311,1206,4840,605	*	*	*xywh-#27:7303,2387,4945,1064	*	*xywh-#21:7352,4701,4806,1108	*	*xywh-#16:7111,318,4889,992	*	*xywh-#11:7244,5143,5086,695	*	*	*	*	*	*	*	*	*
*8\right	*	*	*	*	*	*	*	*below	*	*	*	*	*	*	*	*	*	*
!!LO:TX:t=P:problem=poniżej partii vl I, vl II, vla, powyżej partii org pięciolinia z pomocniczo zapisaną partią B; w partii B pomocniczo org
!	!	!	!LO:TX:t=P:problem:przy kluczu błędnie c- zamiast B-	!	!	!	!	!	!	!	!	!	!	!	!	!	!	!
!LO:TX:a:i:t=Recitativo Baſso Solo:mod=	!	!	!LO:TX:a:i:t=Recitativo:mod=	!	!LO:TX:a:i:t=Recitativo Baſ Solo.:mod=	!	!LO:TX:a:i:t=Recitativo:mod=	!	!LO:TX:a:i:t=Recitativo.:mod=	!	!	!LO:TX:a:i:t=Recitativo\nTacet:mod=Tacet	!LO:TX:a:i:t=Recitativo Tacet:mod=Tacet	!LO:TX:a:i:t=Tacet	!LO:TX:a:i:t=Recitativo Tacet:mod=Tacet	!LO:TX:a:i:t=Recitativo Tacet:mod=Tacet	!LO:TX:a:i:t=Recitativo\nTacet.:mod=Tacet	!LO:TX:a:i:t=Recitativo Baſso Solo Tacet:mod=Tacet
8F\L	.	f	8f\L	f	8a/L	f	8ff\L	f	2r	.	.	1ryy	1ryy	1ryy	1ryy	1ryy	1ryy	1ryy
8F\	.	.	8f\	.	8a/	.	8cc\	.	.	.	.	.	.	.	.	.	.	.
8F\	.	.	8f\	.	8a/	.	8cc\	.	.	.	.	.	.	.	.	.	.	.
8F\J	.	.	8f\J	.	8a/J	.	8cc\J	.	.	.	.	.	.	.	.	.	.	.
4F\	.	.	4f\	.	4a/	.	4cc\	.	4r	.	.	.	.	.	.	.	.	.
4r	.	.	4r	.	4r	.	4r	.	8r	.	.	.	.	.	.	.	.	.
*	*	*	*	*	*	*	*	*	*8\right	*	*	*	*	*	*	*	*	*
.	.	.	.	.	.	.	.	.	8F\	Quis	Quis	.	.	.	.	.	.	.
=2	=2	=2	=2	=2	=2	=2	=2	=2	=2	=2	=2	=2	=2	=2	=2	=2	=2	=2
*	*	*	*	*	*	*	*	*	*4\right	*	*	*	*	*	*	*	*	*
4r	.	.	1r	.	1ryy	.	1r	.	4A\	est	est,	1ryy	1ryy	1ryy	1ryy	1ryy	1ryy	1ryy
*4\right	*	*	*	*	*	*	*	*	*	*	*	*	*	*	*	*	*	*
4E-X\	4 2	.	.	.	.	.	.	.	8r	.	.	.	.	.	.	.	.	.
*	*	*	*	*	*	*	*	*	*	*ij	*ij	*	*	*	*	*	*	*
.	.	.	.	.	.	.	.	.	8E\	Quis	quis	.	.	.	.	.	.	.
4r	.	.	.	.	.	.	.	.	4c\	est	est,	.	.	.	.	.	.	.
4D\	7 #	.	.	.	.	.	.	.	8r	.	.	.	.	.	.	.	.	.
*	*	*	*	*	*	*	*	*	*16\right	*	*	*	*	*	*	*	*	*
.	.	.	.	.	.	.	.	.	16d\	Quis	quis	.	.	.	.	.	.	.
.	.	.	.	.	.	.	.	.	16A\	est	est	.	.	.	.	.	.	.
=3	=3	=3	=3	=3	=3	=3	=3	=3	=3	=3	=3	=3	=3	=3	=3	=3	=3	=3
*	*	*	*	*	*	*	*	*	*	*Xij	*Xij	*	*	*	*	*	*	*
!	!	!	!	!	!	!LO:MO:mod=.	!	!	!	!	!	!	!	!	!	!	!	!
4r	.	.	4r	.	4r	f	4r	.	8B-\	ho-	ho-	1ryy	1ryy	1ryy	1ryy	1ryy	1ryy	1ryy
.	.	.	.	.	.	.	.	.	8G\	-mo	-mo,	.	.	.	.	.	.	.
!	!	!LO:MO:null:mod=!LO&colon;DY&colon;ed=brack	!	!LO:MO:null:mod=!LO&colon;DY&colon;ed=brack	!	!	!	!LO:MO:null:mod=!LO&colon;DY&colon;ed=brack	!	!	!	!	!	!	!	!	!	!
!	!	!	!	!	!	!	!	!	!	!	!	!	!	!	!	!	!	!
!	!	!LO:MO:null:mod=f	!	!LO:MO:null:mod=f	!	!LO:MO:null:mod=f	!	!LO:MO:null:mod=f	!	!	!	!	!	!	!	!	!	!
8G\L	.	.	8d\L	.	8B-/L	.	8gL\	.	4r	.	.	.	.	.	.	.	.	.
8G\	.	.	8g\	.	8d/J	.	8b-\J	.	.	.	.	.	.	.	.	.	.	.
8G\	.	.	8d\	.	8B-/L	.	8gL\	.	4r	.	.	.	.	.	.	.	.	.
8G\J	.	.	8d\J	.	8B-/J	.	8gJ\	.	.	.	.	.	.	.	.	.	.	.
4GG/	.	.	4d\	.	4B-/	.	4g\	.	8r	.	.	.	.	.	.	.	.	.
.	.	.	.	.	.	.	.	.	16B-\	quis	quis	.	.	.	.	.	.	.
.	.	.	.	.	.	.	.	.	16G\	est	est	.	.	.	.	.	.	.
=4	=4	=4	=4	=4	=4	=4	=4	=4	=4	=4	=4	=4	=4	=4	=4	=4	=4	=4
2G\	#4 -	.	1r	.	1r	.	1r	.	8c#X\	ho-	ho-	1ryy	1ryy	1ryy	1ryy	1ryy	1ryy	1ryy
.	.	.	.	.	.	.	.	.	8c#\	-mo	-mo	.	.	.	.	.	.	.
.	4 2	.	.	.	.	.	.	.	8.c#\	qui	qui	.	.	.	.	.	.	.
.	.	.	.	.	.	.	.	.	16c#\	non	non	.	.	.	.	.	.	.
*xywh-#37:7254,2054,4851,633	*	*	*	*	*	*	*	*	*xywh-#11:7309,6061,4891,688	*	*	*	*	*	*	*	*	*
!	!	!	!	!	!	!	!	!	!LO:LB:g=original	!	!	!	!	!	!	!	!	!
2Fn\	6	.	.	.	.	.	.	.	8d\	flo-	fle-	.	.	.	.	.	.	.
.	.	.	.	.	.	.	.	.	8D\	-ret	-ret,	.	.	.	.	.	.	.
.	.	.	.	.	.	.	.	.	8r	.	.	.	.	.	.	.	.	.
.	.	.	.	.	.	.	.	.	16d\	Chri-	Chri-	.	.	.	.	.	.	.
.	.	.	.	.	.	.	.	.	16Bn\	-sti	-sti	.	.	.	.	.	.	.
!	!	!	!	!	!LO:LB:g=original	!	!LO:LB:g=original	!	!	!	!	!	!	!	!	!	!	!
=5	=5	=5	=5	=5	=5	=5	=5	=5	=5	=5	=5	=5	=5	=5	=5	=5	=5	=5
*	*	*	*	*	*xywh-#21:7347,6097,4789,617	*	*xywh-#16:7064,1661,4924,775	*	*	*	*	*	*	*	*	*	*	*
4E\	7 #	.	1r	.	1r	.	1r	.	8G#X\	Ma-	Ma-	1ryy	1ryy	1ryy	1ryy	1ryy	1ryy	1ryy
.	.	.	.	.	.	.	.	.	8G#\	-trem	-trem	.	.	.	.	.	.	.
!LO:LB:g=original	!	!	!	!	!	!	!	!	!	!	!	!	!	!	!	!	!	!
4r	.	.	.	.	.	.	.	.	8.Bn\	si-	si	.	.	.	.	.	.	.
.	.	.	.	.	.	.	.	.	16d\	-vi-	vi-	.	.	.	.	.	.	.
4r	.	.	.	.	.	.	.	.	16d\LL	-de-	-de-	.	.	.	.	.	.	.
.	.	.	.	.	.	.	.	.	16c#X\JJ	.	.	.	.	.	.	.	.	.
.	.	.	.	.	.	.	.	.	8c#\	-ret	-ret	.	.	.	.	.	.	.
4AA/	#	.	.	.	.	.	.	.	8r	.	.	.	.	.	.	.	.	.
.	.	.	.	.	.	.	.	.	8A\	in	in	.	.	.	.	.	.	.
!	!	!	!LO:LB:g=original	!	!	!	!	!	!	!	!	!	!	!	!	!	!	!
=6	=6	=6	=6	=6	=6	=6	=6	=6	=6	=6	=6	=6	=6	=6	=6	=6	=6	=6
*	*	*	*xywh-#27:7308,3729,4917,555	*	*	*	*	*	*	*	*	*	*	*	*	*	*	*
2r	.	.	2r	.	2r	.	2r	.	4d\	tan-	tan-	1ryy	1ryy	1ryy	1ryy	1ryy	1ryy	1ryy
.	.	.	.	.	.	.	.	.	8B-X\	-to	-to	.	.	.	.	.	.	.
.	.	.	.	.	.	.	.	.	8A\	sup-	sup-	.	.	.	.	.	.	.
!LO:TX:a:i:t=Andante:mod=	!	!	!LO:TX:b:i:t=Andante:mod=	!	!LO:TX:a:i:t=Andante:mod=	!LO:DY:b:t=ffo	!LO:TX:a:i:t=Andante:mod=	!LO:DY:b:t=ffor	!LO:TX:a:t=Andante:mod=	!	!	!	!	!	!	!	!	!
!	!	!	!	!	!	!LO:MO:mod=.	!	!LO:MO:mod=.	!	!	!	!	!	!	!	!	!	!
8r	.	.	8r	.	8r	ff	8r	ff	4.G#X\	-pli-	-pli-	.	.	.	.	.	.	.
!	!	!LO:MO:null:mod=!LO&colon;DY&colon;ed=brack	!	!LO:MO:null:mod=!LO&colon;DY&colon;ed=brack	!	!	!	!	!	!	!	!	!	!	!	!	!	!
!	!	!	!	!	!	!	!	!	!	!	!	!	!	!	!	!	!	!
!LO:SIC:v:s=8BB-/L	!	!LO:MO:null:mod=ff	!LO:SIC:s=8B-'/L	!LO:MO:null:mod=ff	!	!LO:MO:null:mod=ff	!	!LO:MO:null:mod=ff	!	!	!	!	!	!	!	!	!	!
8BB-X/L	6\	.	8B-/L	.	8G#X/'L	.	8d/'L	.	.	.	.	.	.	.	.	.	.	.
*	*	*	*	*	*	*	*Xtuplet	*	*	*	*	*	*	*	*	*	*	*
!	!	!	!LO:SIC:s=8B-'/	!	!	!	!	!	!	!	!	!	!	!	!	!	!	!
8BB-/	.	.	8B-/	.	8G#/'	.	8d/'	.	.	.	.	.	.	.	.	.	.	.
!	!	!	!LO:SIC:s=8B-'/J	!	!	!	!	!	!	!	!	!	!	!	!	!	!	!
8BB-/J	.	.	8B-/J	.	8G#/'J	.	8d/'J	.	8G#\	-ci-	-ci-	.	.	.	.	.	.	.
=7	=7	=7	=7	=7	=7	=7	=7	=7	=7	=7	=7	=7	=7	=7	=7	=7	=7	=7
8AA/	#	.	8A/	.	16.A/'LL	.	16.c#X/'LL	.	4A\	-o	-o?	1ryy	1ryy	1ryy	1ryy	1ryy	1ryy	1ryy
.	.	.	.	.	32A/'K	.	32c#/'K	.	.	.	.	.	.	.	.	.	.	.
8r	.	.	8r	.	16.B-/'	.	16.d/'	.	.	.	.	.	.	.	.	.	.	.
.	.	.	.	.	32c/'JJk	.	32e/'JJk	.	.	.	.	.	.	.	.	.	.	.
8AA/	6 4	.	8A/	.	16.d/'LL	.	16.f/'LL	.	8r	.	.	.	.	.	.	.	.	.
!	!	!	!	!	!	!	!LO:SIC:s=32g/K'	!	!	!	!	!	!	!	!	!	!	!
.	.	.	.	.	32e/'K	.	32g/K	.	.	.	.	.	.	.	.	.	.	.
8r	.	.	8r	.	16.f/'	.	16.a/'	.	8d\	quis	Quis	.	.	.	.	.	.	.
.	.	.	.	.	32d/'JJk	.	32f/'JJk	.	.	.	.	.	.	.	.	.	.	.
*	*	*	*	*	*	*	*	*	*xywh-#11:7309,6906,2797,688	*	*	*	*	*	*	*	*	*
!LO:LB:g=original	!	!	!	!	!LO:SIC:v:s=16.c#/'LL	!	!LO:SIC:s=16.e/LL'	!	!LO:LB:g=original	!	!	!	!	!	!	!	!	!
8AA/	5 #	.	8A/	.	16.c/'LL	.	16.e/LL	.	4c#X\	est	est,	.	.	.	.	.	.	.
.	.	.	.	.	32A/'K	.	32c#/'K	.	.	.	.	.	.	.	.	.	.	.
!	!	!	!	!	!	!	!LO:SIC:s=16.d'/	!	!	!	!	!	!	!	!	!	!	!
8r	.	.	8r	.	16.B-/'	.	16.d/	.	.	.	.	.	.	.	.	.	.	.
!	!	!	!	!	!LO:SIC:v:s=32c#/'JJk	!	!LO:SIC:s=32e'/JJk	!	!	!	!	!	!	!	!	!	!	!
.	.	.	.	.	32c/'JJk	.	32e/JJk	.	.	.	.	.	.	.	.	.	.	.
!	!	!	!	!	!	!	!LO:SIC:s=16.f'/LL	!	!	!	!	!	!	!	!	!	!	!
8AA/	6 4	.	8A/	.	16.d/'LL	.	16.f/LL	.	8r	.	.	.	.	.	.	.	.	.
!	!	!	!	!	!	!	!LO:SIC:s=32g'/K	!	!	!	!	!	!	!	!	!	!	!
.	.	.	.	.	32e/'K	.	32g/K	.	.	.	.	.	.	.	.	.	.	.
!	!	!	!	!	!	!	!LO:SIC:s=16.a'/	!	!	!	!	!	!	!	!	!	!	!
8r	.	.	8r	.	16.f/'	.	16.a/	.	8d\	quis	quis	.	.	.	.	.	.	.
!	!	!	!	!	!	!	!LO:SIC:s=32f'/JJk	!	!	!	!	!	!	!	!	!	!	!
.	.	.	.	.	32d/'JJk	.	32f/JJk	.	.	.	.	.	.	.	.	.	.	.
!	!	!	!	!	!	!	!LO:LB:g=original	!	!	!	!	!	!	!	!	!	!	!
=8	=8	=8	=8	=8	=8	=8	=8	=8	=8	=8	=8	=8	=8	=8	=8	=8	=8	=8
*	*	*	*	*	*	*	*xywh-#16:7076,2640,4972,734	*	*	*	*	*	*	*	*	*	*	*
8AA/	.	.	8A/	.	16.c#X/LL	.	16.e/LL	.	4c#X\	est	est,	1ryy	1ryy	1ryy	1ryy	1ryy	1ryy	1ryy
.	.	.	.	.	32A/K	.	32c#X/K	.	.	.	.	.	.	.	.	.	.	.
8r	.	.	8r	.	16.B-/	.	16.d/	.	.	.	.	.	.	.	.	.	.	.
.	.	.	.	.	32c#/JJk	.	32e/JJk	.	.	.	.	.	.	.	.	.	.	.
*	*	*	*	*	*xywh-#21:7285,6935,4654,797	*	*	*	*	*	*	*	*	*	*	*	*	*
!	!	!	!	!	!LO:LB:g=original	!	!	!	!	!	!	!	!	!	!	!	!	!
8AA/	.	.	8A/	.	16.d/LL	.	16.f/LL	.	8r	.	.	.	.	.	.	.	.	.
.	.	.	.	.	32e/K	.	32g/K	.	.	.	.	.	.	.	.	.	.	.
8r	.	.	8r	.	16.f/	.	16.a/	.	8D\	quis	quis	.	.	.	.	.	.	.
.	.	.	.	.	32d/JJk	.	32f/JJk	.	.	.	.	.	.	.	.	.	.	.
!	!	!	!	!	!LO:SIC:v:s=4c#/;	!	!	!	!	!	!	!	!	!	!	!	!	!
4AA/;	.	.	4A/;	.	4c#X/;	.	4e/;	.	4A\;	est	est,	.	.	.	.	.	.	.
!!!OMD:
!!!OMD-mod: Recitativo
!LO:TX:a:i:t=Recitativo:mod=	!	!	!LO:TX:b:i:t=Recitativo:mod=	!	!LO:TX:a:i:t=Recitativo:mod=	!	!LO:TX:b:i:t=Recitativo:mod=	!	!LO:TX:a:i:t=Recitativo:mod=	!	!	!	!	!	!	!	!	!
4r	.	.	4r	.	4r	.	4r	.	8.A\	quis	quis	.	.	.	.	.	.	.
.	.	.	.	.	.	.	.	.	16B-\	est	est	.	.	.	.	.	.	.
*	*	*	*	*	*	*	*	*	*custos:cn	*	*	*	*	*	*	*	*	*
!	!	!	!	!	!	!	!	!	!LO:PB:g=original	!	!	!	!	!	!	!	!	!
=9	=9	=9	=9	=9	=9	=9	=9	=9	=9	=9	=9	=9	=9	=9	=9	=9	=9	=9
*	*	*	*	*	*	*	*	*	*xywh-#12:2163,746,4962,717	*	*	*	*	*	*	*	*	*
2r	.	.	2r	.	2r	.	2r	.	8cn\	ho-	ho-	1ryy	1ryy	1ryy	1ryy	1ryy	1ryy	1ryy
.	.	.	.	.	.	.	.	.	8c\	-mo	-mo	.	.	.	.	.	.	.
.	.	.	.	.	.	.	.	.	8.c\	qui	qui	.	.	.	.	.	.	.
.	.	.	.	.	.	.	.	.	16d\	non	non	.	.	.	.	.	.	.
4r	.	.	4r	.	4r	.	4r	.	8e-X\	fle-	fle-	.	.	.	.	.	.	.
.	.	.	.	.	.	.	.	.	8e-\	-ret	-ret,	.	.	.	.	.	.	.
4F#X\	-7	.	4f#X\^	.	4a/^>	.	4ee-X\^	.	8r	.	.	.	.	.	.	.	.	.
.	.	.	.	.	.	.	.	.	16e-\	Chri-	Chri-	.	.	.	.	.	.	.
.	.	.	.	.	.	.	.	.	16e-\	-sti	-sti	.	.	.	.	.	.	.
!LO:LB:g=original	!	!	!	!	!	!	!	!	!	!	!	!	!	!	!	!	!	!
=10	=10	=10	=10	=10	=10	=10	=10	=10	=10	=10	=10	=10	=10	=10	=10	=10	=10	=10
*xywh-#37:7254,3030,4767,617	*	*	*	*	*	*	*	*	*	*	*	*	*	*	*	*	*	*
2F\	6	.	2r	.	2r	.	2r	.	8.d\	Mat-	Mat-	1ryy	1ryy	1ryy	1ryy	1ryy	1ryy	1ryy
.	.	.	.	.	.	.	.	.	16A\	-rem	-rem	.	.	.	.	.	.	.
.	.	.	.	.	.	.	.	.	8B-\	si	si	.	.	.	.	.	.	.
.	.	.	.	.	.	.	.	.	8c\	vi-	vi-	.	.	.	.	.	.	.
4r	.	.	4r	.	4r	.	4r	.	16B-\L	-de-	-de-	.	.	.	.	.	.	.
.	.	.	.	.	.	.	.	.	16A\J	.	.	.	.	.	.	.	.	.
.	.	.	.	.	.	.	.	.	8G\	-ret	-ret	.	.	.	.	.	.	.
4G\	.	.	4g\^	.	4b-\^>	.	4dd\^	.	8r	.	.	.	.	.	.	.	.	.
.	.	.	.	.	.	.	.	.	8G\	in	in	.	.	.	.	.	.	.
!	!	!	!LO:LB:g=original	!	!LO:PB:g=original	!	!LO:LB:g=original	!	!	!	!	!	!	!	!	!	!	!
=11	=11	=11	=11	=11	=11	=11	=11	=11	=11	=11	=11	=11	=11	=11	=11	=11	=11	=11
*	*	*	*xywh-#27:7258,4724,4840,489	*	*xywh-#22:2259,677,4808,900	*	*xywh-#16:7129,3595,4871,635	*	*	*	*	*	*	*	*	*	*	*
2r	.	.	1r	.	1r	.	1r	.	4B-\	tan-	tan-	1ryy	1ryy	1ryy	1ryy	1ryy	1ryy	1ryy
.	.	.	.	.	.	.	.	.	8A\	-to	-to	.	.	.	.	.	.	.
.	.	.	.	.	.	.	.	.	8G\	sup-	sup-	.	.	.	.	.	.	.
2G\	#4r	.	.	.	.	.	.	.	16c#X\	-pli-	-pli-	.	.	.	.	.	.	.
.	.	.	.	.	.	.	.	.	16c#\	-ci-	-ci-	.	.	.	.	.	.	.
.	.	.	.	.	.	.	.	.	8c#\	-o	-o,	.	.	.	.	.	.	.
.	.	.	.	.	.	.	.	.	8r	.	.	.	.	.	.	.	.	.
.	.	.	.	.	.	.	.	.	8A\	in	in	.	.	.	.	.	.	.
!	!	!	!	!	!	!	!	!	!LO:LB:g=original	!	!	!	!	!	!	!	!	!
=12	=12	=12	=12	=12	=12	=12	=12	=12	=12	=12	=12	=12	=12	=12	=12	=12	=12	=12
*	*	*	*	*	*	*	*	*	*xywh-#12:2180,1657,5030,824	*	*	*	*	*	*	*	*	*
!LO:TX:ai::t=Andante:mod=	!	!	!LO:TX:b:i:t=Andante:mod=	!	!LO:TX:a:i:t=Andante:mod=	!	!LO:TX:a:i:t=Andante:mod=	!	!LO:TX:a:t=Andante:mod=	!	!	!	!	!	!	!	!	!
4F#X\	.	.	2r	.	2r	.	2r	.	4d\	tan-	tan-	1ryy	1ryy	1ryy	1ryy	1ryy	1ryy	1ryy
4G\	.	.	.	.	.	.	.	.	16cn\LL	-to	-to	.	.	.	.	.	.	.
.	.	.	.	.	.	.	.	.	16B-\JJ	.	.	.	.	.	.	.	.	.
.	.	.	.	.	.	.	.	.	16A\LL	sup-	sup-	.	.	.	.	.	.	.
.	.	.	.	.	.	.	.	.	16G\JJ	.	.	.	.	.	.	.	.	.
!	!	!	!	!	!	!	!	!	!LO:SIC:o=niepotrzebna kreska taktowa:v	!	!	!	!	!	!	!	!	!
!!LO:MO:ori
=-	=-	=	=-	=-	=-	=-	=-	=-	=	=	=	=-	=-	=-	=-	=-	=-	=-
!!LO:MO:end
!	!	!	!	!	!LO:SIC:s=16r	!LO:DY:b:rj:t=ffo	!LO:N:vis=8	!LO:DY:b:rj:t=ffor.	!	!	!	!	!	!	!	!	!	!
!	!	!	!	!LO:DY:b:rj	!	!LO:MO:mod=.	!	!LO:MO:mod=.	!	!	!	!	!	!	!	!	!	!
8D\	#	.	8d\	f	16ryy	ff	16r	ff	16d\	-pli-	-pli-	.	.	.	.	.	.	.
!	!	!	!	!	!LO:TX:a:t=P:problem=mixed beam	!	!LO:TX:a:t=P:problem=mixed beam	!	!	!	!	!	!	!	!	!	!	!
.	.	.	.	.	.	.	.	.	.	.	.	.	.	.	.	.	.	.
!	!	!	!	!	!LO:N:vis=16.	!	!LO:N:vis=16.	!	!	!	!	!	!	!	!	!	!	!
!	!	!	!	!	!	!LO:MO:null:mod=ff	!LO:SIC:s=16d'/LL	!LO:MO:null:mod=ff	!	!	!	!	!	!	!	!	!	!
.	.	.	.	.	16dLL'/	.	16d/LL	.	16D\	-ci-	-ci-	.	.	.	.	.	.	.
8r	.	.	8r	.	16.dd'\	.	16.dd'\	.	8D\	-o	-o?	.	.	.	.	.	.	.
.	.	.	.	.	32ccJJk'\	.	32ccJJk'\	.	.	.	.	.	.	.	.	.	.	.
8D\	6 4	.	8d\	.	16.b-'LL\	.	16.b-'LL\	.	8r	.	.	.	.	.	.	.	.	.
.	.	.	.	.	32dd\'K	.	32dd\'K	.	.	.	.	.	.	.	.	.	.	.
!	!	!	!	!	!LO:N:vis=16	!	!	!	!	!	!	!	!	!	!	!	!	!
8r	.	.	8r	.	16.b-\'	.	16.b-\'	.	16B-\	quis	Quis	.	.	.	.	.	.	.
.	.	.	.	.	.	.	.	.	16G\	est	est	.	.	.	.	.	.	.
.	.	.	.	.	32g/'JJk	.	32g/'JJk	.	.	.	.	.	.	.	.	.	.	.
=13	=13	=13	=13	=13	=13	=13	=13	=13	=13	=13	=13	=13	=13	=13	=13	=13	=13	=13
!	!	!	!	!	!LO:SIC:s=16.f#X'LL/	!	!LO:TX:a:t=P:problem=mixed beam	!	!	!	!	!	!	!	!	!	!	!
8D\	5 #	.	8d\	.	16.f#XLL/	.	16.f#X'>LL/	.	8d\	ho-	ho-	1ryy	1ryy	1ryy	1ryy	1ryy	1ryy	1ryy
!	!	!	!	!	!LO:TX:a:t=P:problem=mixed beam	!	!	!	!	!	!	!	!	!	!	!	!	!
!	!	!	!	!	!LO:SIC:s=32dK'/	!	!	!	!	!	!	!	!	!	!	!	!	!
.	.	.	.	.	32dK/	.	32d'>K/	.	.	.	.	.	.	.	.	.	.	.
8r	.	.	8r	.	16.dd'\	.	16.dd'\	.	8D\	-mo	-mo,	.	.	.	.	.	.	.
.	.	.	.	.	32cc'JJk\	.	32cc'JJk\	.	.	.	.	.	.	.	.	.	.	.
8D\	6 4	.	8d\	.	16.b-\'LL	.	16.b-\'LL	.	8r	.	.	.	.	.	.	.	.	.
!	!	!	!	!	!LO:SIC:s=32dd'\K	!	!	!	!	!	!	!	!	!	!	!	!	!
.	.	.	.	.	32dd\K	.	32dd\'K	.	.	.	.	.	.	.	.	.	.	.
8r	.	.	8r	.	16.b-\'	.	16.b-\'	.	16B-\LL	quis	quis	.	.	.	.	.	.	.
.	.	.	.	.	.	.	.	.	16G\JJ	.	.	.	.	.	.	.	.	.
.	.	.	.	.	32g/'JJk	.	32g/'JJk	.	.	.	.	.	.	.	.	.	.	.
*xywh-#37:7327,4005,2580,544	*	*	*	*	*	*	*	*	*	*	*	*	*	*	*	*	*	*
!LO:LB:g=original	!	!	!	!	!LO:TX:a:t=P:problem=mixed beam	!	!	!	!	!	!	!	!	!	!	!	!	!
8D\	5 #	.	8d\	.	16.f#X/'>LL	.	16.f#X/'LL	.	4d\	est	est	.	.	.	.	.	.	.
!	!	!	!	!	!LO:SIC:s=32d'/K	!	!	!	!	!	!	!	!	!	!	!	!	!
.	.	.	.	.	32d/K	.	32d/'K	.	.	.	.	.	.	.	.	.	.	.
8r	.	.	8r	.	16.dd\'	.	16.dd'\	.	.	.	.	.	.	.	.	.	.	.
!	!	!	!	!	!	!	!LO:SIC:s=32cc'\JJk	!	!	!	!	!	!	!	!	!	!	!
.	.	.	.	.	32cc\'JJk	.	32cc\JJk	.	.	.	.	.	.	.	.	.	.	.
8D\	6 4	.	8d\	.	16.b-\'LL	.	16.b-\'LL	.	8r	.	.	.	.	.	.	.	.	.
.	.	.	.	.	32dd\'K	.	32dd\'K	.	.	.	.	.	.	.	.	.	.	.
!	!	!	!	!	!LO:SIC:s=16.b-'\	!	!LO:SIC:s=16.b-'\	!	!	!	!	!	!	!	!	!	!	!
8r	.	.	8r	.	16.b-\	.	16.b-\	.	16B-\	qui	qui	.	.	.	.	.	.	.
.	.	.	.	.	.	.	.	.	16G\	non	non	.	.	.	.	.	.	.
!	!	!	!	!	!	!	!LO:SIC:s=32g'/JJk	!	!	!	!	!	!	!	!	!	!	!
.	.	.	.	.	32g/'JJk	.	32g/JJk	.	.	.	.	.	.	.	.	.	.	.
!	!	!	!	!	!LO:LB:g=original	!	!LO:LB:g=original	!	!	!	!	!	!	!	!	!	!	!
=14	=14	=14	=14	=14	=14	=14	=14	=14	=14	=14	=14	=14	=14	=14	=14	=14	=14	=14
*	*	*	*	*	*xywh-#22:2243,1780,2368,762	*	*xywh-#16:7099,4616,2447,650	*	*	*	*	*	*	*	*	*	*	*
4D\	5 #	.	4d\	.	4d/	.	4d/	.	8d\	fle-	fle-	1ryy	1ryy	1ryy	1ryy	1ryy	1ryy	1ryy
.	.	.	.	.	.	.	.	.	8D\	-ret	-ret,	.	.	.	.	.	.	.
4r	.	.	4r	.	4r	.	4r	.	8r	.	.	.	.	.	.	.	.	.
.	.	.	.	.	.	.	.	.	8D\	in	in	.	.	.	.	.	.	.
2r	.	.	2r	.	2r	.	2r	.	4G\	tan-	tan-	.	.	.	.	.	.	.
.	.	.	.	.	.	.	.	.	8E-X\	-to	-to	.	.	.	.	.	.	.
.	.	.	.	.	.	.	.	.	8D\	sup-	sup-	.	.	.	.	.	.	.
=15	=15	=15	=15	=15	=15	=15	=15	=15	=15	=15	=15	=15	=15	=15	=15	=15	=15	=15
.	.	.	.	.	.	.	.	.	8qqD/	.	.	.	.	.	.	.	.	.
!	!	!	!	!	!	!LO:DY:b:t=fo	!	!LO:DY:b:t=fortiſ	!	!	!	!	!	!	!	!	!	!
!	!	!	!	!LO:MO:mod=.	!	!LO:MO:mod=.	!	!LO:MO:mod=.	!	!	!	!	!	!	!	!	!	!
8r	.	.	8r	f	8r	f	8r	f	4.C#X\	-pli-	-pli-	1ryy	1ryy	1ryy	1ryy	1ryy	1ryy	1ryy
!	!	!LO:MO:null:mod=!LO&colon;DY&colon;ed=brack	!	!	!	!	!	!	!	!	!	!	!	!	!	!	!	!
!	!	!	!	!	!	!	!	!	!	!	!	!	!	!	!	!	!	!
!	!	!LO:MO:null:mod=f	!	!LO:MO:null:mod=f	!	!LO:MO:null:mod=f	!	!LO:MO:null:mod=f	!	!	!	!	!	!	!	!	!	!
8E-X\L	6\	.	8e-X\L	.	8c#X/L	.	8gL\	.	.	.	.	.	.	.	.	.	.	.
8E-\	.	.	8e-\	.	8c#/	.	8g\	.	.	.	.	.	.	.	.	.	.	.
8E-\J	.	.	8e-\J	.	8c#/J	.	8gJ\	.	8C#\	-ci-	-ci-	.	.	.	.	.	.	.
!	!	!	!	!	!	!	!	!	!LO:SIC:v:s=2D\	!	!	!	!	!	!	!	!	!
2D\	.	.	2d\	.	2A/	.	2f#X/	.	2C#\	-o	-o?	.	.	.	.	.	.	.
==	==	==	==	==	==	==	==	==	==	==	==	==	==	==	==	==	==	==
*-	*-	*-	*-	*-	*-	*-	*-	*-	*-	*-	*-	*-	*-	*-	*-	*-	*-	*-
!!!system-decoration: [g1][g2][g3][g4]s12
!!!RDF**kern: > = above
!!!RDF**kern: < = below
!!LO:MO:ori
!!!RDF**dynam: f = for
!!LO:MO:end
!!!ENC: Leszek Kubiak
!!!END: 2020-05-18
!!!ENC-modern: Katarzyna Serwa
!!!END-modern: 2022-10-06
!!!YEC: Copyright 2022 Narodowy Instytut Fryderyka Chopina (https://polishscores.org)
!!!YEM: Licence CC BY 4.0 (https://creativecommons.org/licenses/by/4.0)
!!!IIIF: https://repozytorium.nifc.pl/islandora/object/pl-cz%3A33216/datastream/IIIF/view
!!!ENC-iiif: Olaf Gawdzik
!!!END-iiif: 2022-09-08
!!!filter-modern: sic -sq | shed -e "s/LO:DY:(a|b|rj)/LO:dy:$1/L" | autostem -r | tie -s | shed -k -e "s/[<>]//g" | shed -e "s/^custos:/Xcustos:/I" | shed -k -e "s/:TUP:/:tup:/L" | shed -e "s/N:vis=/N:VIS=/L" | shed -e "s/TX(.*):t=P:/tx$1:t=P:/LG" | shed -e "s/^(\d+[\/\\]right)/$1yy/I; s/^(\d+[\/\\]left)/$1yy/I" | modori -m
